Bloom-Colors/scalable/status/timer-symbolic.svg

<svg width="16" height="16" version="1.1" xmlns="http://www.w3.org/2000/svg">
<path d="m7 7h2l2-2h-6zm0 5-1 1h-4v2h12v-2h-4l-1-1zm-5-11v2h12v-2zm1 12v-2.207l2-2v-0.586l-2-2v-3.207h1v2.793l2 2v1.414l-2 2v1.793zm9 0v-1.793l-2-2v-1.414l2-2v-2.793h1v3.207l-2 2v0.586l2 2v2.207z" fill="#666"/>
</svg>

<svg xmlns="http://www.w3.org/2000/svg" width="16" height="16" version="1.1">
 <path style="fill:#444444" d="M 7,7 H 9 L 11,5 H 5 Z M 7,12 6,13 H 2 V 15 H 14 V 13 H 10 L 9,12 Z M 2,1 V 3 H 14 V 1 Z M 3,13 V 10.793 L 5,8.793 V 8.207 L 3,6.207 V 3 H 4 V 5.793 L 6,7.793 V 9.207 L 4,11.207 V 13 Z M 12,13 V 11.207 L 10,9.207 V 7.793 L 12,5.793 V 3 H 13 V 6.207 L 11,8.207 V 8.793 L 13,10.793 V 13 Z"/>
</svg>
